!!!SOCIAL_FUNCTION:	tick dance songs
!!!PDT:	1943
!!!LING_GROUP: Muskogean
!!!LANG: Non-Tone
Specific Region: Oklahoma, California, Mississippi, Louisiana, Texas, Alabama
!!!REG: Southeast
!!!COM: Anon.
!!!OTL: Tick Dance Song (i)
!!!ODT: <1933//
!!!MPN: Lysander Tubby and Gus Willis
!!!MLC: Philadelphia, Mississippi, United States of America
!! Song was recorded in January 1933.
!!!AGN: monody
!!!AMT: irregular
!!!RWG: Transcribed pitches, durations, and meters are only approximate.
**kern
*ICvox
*Imale
*clefF4
*k[b-e-a-]
*M2/4
*MM80
=1-
4.B-
8G
=2
4B-
8G
8E-
=3
4G
8F
8E-
=4
4E-
8E-
8r
=5
16B-
8.G
4B-
=6
4G
8F
8E-
=7
4.F
8E-
*M3/4
=8
4F
8E-
8r
4G
*M2/4
=9
4.F
8E-
*M3/4
=10
4F
4E-
4G
*M2/4
=11
4.F
8E-
=12
4F
4F
=13
4.c
8G
=14
4B-
8G
8F
=15
4G
8G
8F
=16
8E-
8E-
8E-
8r
=17
16B-
8.G
4B-
=18
4G
8F
8e-
=19
(4.F
8E-)
*M3/4
=20
4F
4E-
4G
*M2/4
=21
(4.F
8E)
*M3/4
=22
4F
4E-
4G
*M2/4
=23
!! augmentation dot added
(4.F
8E-)
=24
4F
4F
=25
!! return to beginning
4.B-
8G
=26
4B-
8G
8E-
=27
4G
8F
8E-
=28
4E-
8E-
8r
=29
16B-
8.G
4B-
=30
4G
8F
8E-
=31
4.F
8E-
*M3/4
=32
4F
8E-
8r
4G
*M2/4
=33
4.F
8E-
*M3/4
=34
4F
4E-
4G
*M2/4
=35
4.F
8E-
=36
4F
4F
==
*-
!!!CNT: Choctaw
!!!TXO: Choctaw
!!!OCY: United States
!!!OCL: Frances Densmore
!!!YOR: Frances Densmore, "Choctaw Music"
!!!YOR: Bulletin 136, page 142, No. 18
!!!PPR: Smithsonian Institution, Bureau of American Ethnology
!!!PPR: Government Printing Office
!!!PDT: 1943
!!!PPP: Washington, DC, United States of America
!!!YEC: Electronic Copyright 2000 David Huron
!!!YER: August 2000
!!!YEN: United States of America
!!!ENC: David Huron
!!!RDT: August 27, 2000
!!!EEV: Release 1.0
!!!AIN: vox
